X:1
T:Title
%%score ( 1 2 ) { 3 | 4 }
L:1/8
Q:1/4=140
M:3/4
K:F
V:1 treble nm="Grand Piano, Unnamed-000"
V:2 treble 
V:3 bass nm="Choir Pad, Hursley"
V:4 bass 
V:1
 [CF]2 [CF]2 [CF]2 | F2 E2 [CF]2 | G2 A2 [EG]2 | F6 | [FA]2 [FA]2 [FA]2 | [FA]2 [EG]2 [FA]2 | %6
w: By~Katholisches~Gesangbuch,~1774 * *||||||
 [Fc]2 [EB]2 [FA]2 | [EG]6 | [EG]2 G2 [^FA]2 | G2 z2 z2 | [FA]4 [FB]2 | [Ec]6 | [Fd]2 [Fd]2 [Fd]2 | %13
w: |||||||
 c2- [Ec]2 [FA]2 | B2 A2 [EG]2 | F6- | F2 z2 z2 |] %17
w: ||||
V:2
 x6 | C4 z2 | E4 z2 | x6 | x6 | x6 | x6 | x6 | x6 | B2- [DB]2 [EG]2 | x6 | x6 | x6 | F2 z2 z2 | %14
 F4 z2 | x6 | x6 |] %17
V:3
 A,2 A,2 A,2 | A,2 G,2 A,2 | B,2 C2 B,2 | A,6 | C2 C2 C2 | C4 C2 | C4 C2 | C6 | C2 D2 C2 | B,4 C2 | %10
 C4[K:bass] F,2 | G,6 | B,2 B,2 B,2 | G,4 F,2 | D2 C2 B,2 | A,6- | A,2 z2 z2 |] %17
V:4
 F,2 F,2 F,2 | F,4 F,2 | C,4 C,2 | F,6 | F,2 F,2 F,2 | F,4 F,2 | A,2 G,2 F,2 | C,6 | z2 B,2 A,2 | %9
 G,4 C,2 | F,4 D,2 | C,6 | B,,2 B,,2 B,,2 | C,4 D,2 | B,,2 C,2 C,2 | F,6- | F,2 z2 z2 |] %17

